src/images/contact/contact-social.svg

<svg id="Layer_1" data-name="Layer 1" xmlns="http://www.w3.org/2000/svg" viewBox="0 0 54 54"><defs><style>.cls-1{fill:#cdaed2;}.cls-2{fill:#53316d;}.cls-3{fill:#8dd5e7;}.cls-4{fill:#e84344;}.cls-5{fill:#52306c;}</style></defs><title>contact-social</title><path class="cls-1" d="M49.3,49.5H49.2l-7.9-6H20.6a2.05,2.05,0,0,1-2.1-2.1V20.6a2.05,2.05,0,0,1,2.1-2.1H47.4a2.05,2.05,0,0,1,2.1,2.1V49.3a0.2,0.2,0,0,1-.1.2H49.3Z"/><path class="cls-2" d="M47.4,19A1.58,1.58,0,0,1,49,20.6V48.8l-7.4-5.5L41.3,43H20.6A1.58,1.58,0,0,1,19,41.4V20.6A1.58,1.58,0,0,1,20.6,19H47.4m0-1H20.6A2.65,2.65,0,0,0,18,20.6V41.4A2.65,2.65,0,0,0,20.6,44H41l7.8,5.9a0.6,0.6,0,0,0,.4.1h0a0.68,0.68,0,0,0,.7-0.7V20.6A2.5,2.5,0,0,0,47.4,18h0ZM18,41.4h0Zm0,0v0.1h0V41.4h0Z"/><path class="cls-3" d="M5.5,39.7a0.35,0.35,0,0,1-.3-0.4V7.5A2.46,2.46,0,0,1,7.6,5H37.5A2.48,2.48,0,0,1,40,7.5V30.6a2.48,2.48,0,0,1-2.5,2.5H14.9a1.42,1.42,0,0,0-.6.2L5.7,39.7H5.5Z"/><path class="cls-2" d="M37.5,6A1.52,1.52,0,0,1,39,7.4V30.5a1.45,1.45,0,0,1-1.5,1.4H14.9a1.75,1.75,0,0,0-1.2.4L6.1,38V7.4A1.6,1.6,0,0,1,7.6,6H37.5m0-2H7.6A3.37,3.37,0,0,0,4.2,7.4V39.3a1.42,1.42,0,0,0,1.3,1.4h0a1.14,1.14,0,0,0,.8-0.3L14.9,34H37.5A3.46,3.46,0,0,0,41,30.6V7.4A3.4,3.4,0,0,0,37.5,4h0Z"/><path class="cls-4" d="M23.6,26.4h0a14.59,14.59,0,0,1-4.3-1.5c-3-1.7-4.7-4-5-6.8a5.35,5.35,0,0,1,.8-3.7,5.67,5.67,0,0,1,3.4-2.2h0.7a4.89,4.89,0,0,1,3.1,1.1,0.53,0.53,0,0,0,.3.2l0.3-.3a5.58,5.58,0,0,1,3.2-1.7h0.5a5,5,0,0,1,5,5c0.2,2.7-1,5.3-3.6,7.5a15.4,15.4,0,0,1-3.9,2.3l-0.4.1H23.6Z"/><path class="cls-5" d="M26.7,12a4.46,4.46,0,0,1,4.5,4.5,8.4,8.4,0,0,1-3.4,7.1A13,13,0,0,1,24,25.8l-0.4.1a15.57,15.57,0,0,1-4.1-1.5c-2.8-1.6-4.5-3.7-4.7-6.4a4.56,4.56,0,0,1,3.8-5.3h0.6a4.19,4.19,0,0,1,2.8,1,1.34,1.34,0,0,1,.6.7,1.56,1.56,0,0,1,.6-0.8,4.14,4.14,0,0,1,2.9-1.5,1.49,1.49,0,0,1,.6-0.1m0-1H26.1a5.21,5.21,0,0,0-3.5,1.8,5.54,5.54,0,0,0-3.4-1.1H18.8a0.48,0.48,0,0,0-.4.1,5.54,5.54,0,0,0-3.7,2.4,5.47,5.47,0,0,0-.9,4.1c0.3,2.9,2.1,5.4,5.2,7.1A16.53,16.53,0,0,0,23.4,27h0.5l0.4-.1h0.1a14.39,14.39,0,0,0,4-2.3c2.8-2.3,4.1-5,3.8-7.9-0.2-4-3-5.7-5.5-5.7h0Z"/></svg>

<?xml version="1.0" encoding="utf-8"?>
<!-- Generator: Adobe Illustrator 19.2.1, SVG Export Plug-In . SVG Version: 6.00 Build 0)  -->
<svg version="1.1" id="Layer_1" xmlns="http://www.w3.org/2000/svg" xmlns:xlink="http://www.w3.org/1999/xlink" x="0px" y="0px"
	 viewBox="0 0 54 54" style="enable-background:new 0 0 54 54;" xml:space="preserve">
<style type="text/css">
	.st0{fill:#CDAED2;}
	.st1{fill:#53316D;}
	.st2{fill:#8DD5E7;}
	.st3{fill:#E84344;}
	.st4{fill:#52306C;}
</style>
<title>contact</title>
<g>
	<path class="st0" d="M49.3,49.5c-0.1,0-0.1,0-0.1,0l-7.9-6H20.6c-1.2,0-2.1-0.9-2.1-2.1V20.6c0-1.2,0.9-2.1,2.1-2.1h26.8
		c1.2,0,2.1,0.9,2.1,2.1v28.7c0,0.1,0,0.1-0.1,0.2C49.4,49.5,49.3,49.5,49.3,49.5L49.3,49.5z"/>
	<path class="st1" d="M47.4,19c0.9,0,1.6,0.7,1.6,1.6l0,28.2l-7.4-5.5L41.3,43H41H20.6c-0.9,0-1.6-0.7-1.6-1.6V20.6
		c0-0.9,0.7-1.6,1.6-1.6H47.4 M47.4,18H20.6c-1.4,0-2.6,1.2-2.6,2.6v20.8c0,1.4,1.2,2.6,2.6,2.6H41l7.8,5.9c0.1,0.1,0.3,0.1,0.4,0.1
		c0,0,0,0,0,0c0.2,0,0.4-0.1,0.5-0.2c0.1-0.1,0.2-0.3,0.2-0.5V20.6C50,19.2,48.8,18,47.4,18L47.4,18z M18,41.4
		C18,41.4,18,41.4,18,41.4C18,41.4,18,41.4,18,41.4L18,41.4z M18,41.4c0,0,0,0.1,0,0.1c0,0,0,0,0,0L18,41.4C18,41.4,18,41.4,18,41.4
		L18,41.4z"/>
</g>
<g>
	<path class="st2" d="M5.5,39.7c-0.2,0-0.3-0.2-0.3-0.4V7.5C5.2,6.1,6.3,5,7.6,5h29.9C38.9,5,40,6.1,40,7.5v23.1
		c0,1.4-1.1,2.5-2.5,2.5H14.9c-0.2,0-0.4,0.1-0.6,0.2l-8.6,6.4C5.7,39.7,5.6,39.7,5.5,39.7L5.5,39.7z"/>
	<path class="st1" d="M37.5,6C38.3,6,39,6.7,39,7.4v23.1c0,0.8-0.7,1.4-1.5,1.4H14.9c-0.4,0-0.9,0.1-1.2,0.4l-7.6,5.7V7.4
		C6.2,6.7,6.8,6,7.6,6H37.5 M37.5,4H7.6C5.7,4,4.2,5.5,4.2,7.4v31.9c0,0.7,0.6,1.4,1.3,1.4c0,0,0,0,0,0c0.3,0,0.6-0.1,0.8-0.3
		l8.6-6.4h22.6c1.9,0,3.5-1.5,3.5-3.4V7.4C41,5.5,39.5,4,37.5,4L37.5,4z"/>
</g>
<g>
	<path class="st3" d="M23.6,26.4C23.6,26.4,23.6,26.4,23.6,26.4c-1.6-0.3-3-0.8-4.3-1.5c-3-1.7-4.7-4-5-6.8
		c-0.2-1.3,0.1-2.6,0.8-3.7c0.8-1.1,2-1.9,3.4-2.2c0.1,0,0.2,0,0.3,0c0.1,0,0.3,0,0.4,0c1.1,0,2.3,0.4,3.1,1.1
		c0.1,0.1,0.2,0.2,0.3,0.2c0.1-0.1,0.2-0.2,0.3-0.3c0.8-0.9,2-1.5,3.2-1.7c0.2,0,0.4,0,0.5,0c2.3,0,4.8,1.6,5,5
		c0.2,2.7-1,5.3-3.6,7.5c-1.2,1-2.5,1.7-3.9,2.3l-0.4,0.1C23.7,26.4,23.7,26.4,23.6,26.4z"/>
	<path class="st4" d="M26.7,12c2.2,0,4.3,1.5,4.5,4.5c0.2,2.6-1,5.1-3.4,7.1c-1.1,0.9-2.4,1.7-3.8,2.2l-0.4,0.1
		c-1.4-0.3-2.8-0.8-4.1-1.5c-2.8-1.6-4.5-3.7-4.7-6.4c-0.5-2.5,1.3-4.9,3.8-5.3c0.1,0,0.2,0,0.3,0c0.1,0,0.2,0,0.3,0
		c1,0,2,0.3,2.8,1c0.3,0.2,0.5,0.4,0.6,0.7c0.1-0.3,0.3-0.6,0.6-0.8c0.7-0.9,1.8-1.4,2.9-1.5C26.4,12,26.5,12,26.7,12 M26.7,11
		C26.7,11,26.7,11,26.7,11c-0.2,0-0.4,0-0.6,0c-1.4,0.1-2.6,0.8-3.5,1.8c-0.9-0.7-2.1-1.1-3.4-1.1c-0.1,0-0.3,0-0.4,0
		c-0.2,0-0.3,0-0.4,0.1c-1.5,0.3-2.9,1.1-3.7,2.4c-0.8,1.2-1.2,2.7-0.9,4.1c0.3,2.9,2.1,5.4,5.2,7.1c1.4,0.7,2.8,1.3,4.4,1.6
		c0.1,0,0.1,0,0.2,0c0.1,0,0.2,0,0.3,0l0.4-0.1c0,0,0.1,0,0.1,0c1.5-0.6,2.8-1.3,4-2.3c2.8-2.3,4.1-5,3.8-7.9
		C32,12.7,29.2,11,26.7,11L26.7,11z"/>
</g>
</svg>
